X: 6
T:Cliffs of Moher
S:Kevin Burke
B:Miles Krassen :O'Neills Music of Ireland
M:6/8
L:1/8
Q:180
K:EMinor
e [| ~a3 bag | eaf ged| c2 A BAG| EFG ABc|
aga bag|eaf ged|c2 A BAG| EAA A3 :||e3 dBA|
efe dBA| G2 B dBA| ~G3 dBA|1e3 dBA|dfe dBA| EFA BAG|EAA A3 :|2
 e3 dee| cee Bee| EFG BAG| EDC ~A,3||
